X:964
T:Cailini Ard a'Ratha
S:Donegal Fiddle Tutor Vol.3
Z:Nigel Gatherer
L:1/8
M:4/4
K:D
(3ABc | dedB AFDF | GABA GABc | dedB AFDF | ECEF D2 :|
(3ABc | defg afdf | e^def e=dBA | defg afdf | ed (3efe d2
(3ABc | defg afdf | e^def e=dBA | dedB AFDF | EDEF D2 |]
<end>
<start>
